public/assets/routes_avatar/landPriceDeductionDetails.svg

<?xml version="1.0" encoding="UTF-8"?>
<svg width="60px" height="60px" viewBox="0 0 60 60" version="1.1" xmlns="http://www.w3.org/2000/svg" xmlns:xlink="http://www.w3.org/1999/xlink">
    <!-- Generator: Sketch 49.3 (51167) - http://www.bohemiancoding.com/sketch -->
    <title>土地价款-其他应税项目扣除台账</title>
    <desc>Created with Sketch.</desc>
    <defs>
        <rect id="path-1" x="0" y="0" width="25" height="27" rx="2"></rect>
    </defs>
    <g id="icon" stroke="none" stroke-width="1" fill="none" fill-rule="evenodd">
        <g id="土地价款-其他应税项目扣除台账">
            <circle id="Oval-Copy" fill="#05DCAC" cx="30" cy="30" r="30"></circle>
            <g id="Group-54" transform="translate(15.000000, 16.000000)">
                <g id="Rectangle-4">
                    <use fill="#05DCAC" fill-rule="evenodd" xlink:href="#path-1"></use>
                    <rect stroke="#FFFFFF" stroke-width="1.5" x="0.75" y="0.75" width="23.5" height="25.5" rx="2"></rect>
                </g>
                <rect id="Rectangle-3" fill="#FFFFFF" x="4" y="5" width="15" height="1.5" rx="0.75"></rect>
                <rect id="Rectangle-3-Copy" fill="#FFFFFF" x="4" y="10" width="15" height="1.5" rx="0.75"></rect>
                <rect id="Rectangle-3-Copy-2" fill="#FFFFFF" x="4" y="14" width="10" height="1.5" rx="0.75"></rect>
                <circle id="Oval-2" fill="#05DCAC" cx="23.5" cy="21.5" r="7.5"></circle>
                <path d="M23,28 C19.6862915,28 17,25.3137085 17,22 C17,18.6862915 19.6862915,16 23,16 C26.3137085,16 29,18.6862915 29,22 C29,25.3137085 26.3137085,28 23,28 Z M23,26.7586207 C25.6281136,26.7586207 27.7586207,24.6281136 27.7586207,22 C27.7586207,19.3718864 25.6281136,17.2413793 23,17.2413793 C20.3718864,17.2413793 18.2413793,19.3718864 18.2413793,22 C18.2413793,24.6281136 20.3718864,26.7586207 23,26.7586207 Z" id="Oval-3" fill="#FFFFFF" fill-rule="nonzero"></path>
                <polygon id="￥-copy" fill="#FFFFFF" points="20 19 21.3702422 19 23 21.5798319 24.6297578 19 26 19 23.9757785 21.9495798 25.3564014 21.9495798 25.3564014 22.4705882 23.6124567 22.4705882 23.6020761 22.4789916 23.6020761 23.2016807 25.3564014 23.2016807 25.3564014 23.7226891 23.6020761 23.7226891 23.6020761 25 22.3979239 25 22.3979239 23.7226891 20.6539792 23.7226891 20.6539792 23.2016807 22.3979239 23.2016807 22.3979239 22.4789916 22.3875433 22.4705882 20.6539792 22.4705882 20.6539792 21.9495798 22.0242215 21.9495798"></polygon>
                <path d="M4.11285266,18.5699039 L5.14106583,18.5699039 L5.14106583,18.0512273 L5.79937304,18.0512273 L5.79937304,18.5699039 L7.86833856,18.5699039 L7.86833856,18.0512273 L8.52664577,18.0512273 L8.52664577,18.5699039 L9.55485893,18.5699039 L9.55485893,19.1974386 L8.52664577,19.1974386 L8.52664577,21.9124867 L9.67398119,21.9124867 L9.67398119,22.5336179 L4,22.5336179 L4,21.9124867 L5.14106583,21.9124867 L5.14106583,19.1974386 L4.11285266,19.1974386 L4.11285266,18.5699039 Z M5.79937304,21.9124867 L7.86833856,21.9124867 L7.86833856,21.361793 L5.79937304,21.361793 L5.79937304,21.9124867 Z M5.79937304,20.7982924 L7.86833856,20.7982924 L7.86833856,20.2796158 L5.79937304,20.2796158 L5.79937304,20.7982924 Z M5.79937304,19.7161153 L7.86833856,19.7161153 L7.86833856,19.1974386 L5.79937304,19.1974386 L5.79937304,19.7161153 Z M5.87460815,22.565635 L6.33855799,22.9882604 C5.8369906,23.3596585 5.22257053,23.6926361 4.49529781,23.9807898 L4.0815047,23.4300961 C4.78996865,23.1867663 5.38557994,22.8986126 5.87460815,22.565635 Z M7.70532915,22.5976521 C8.39498433,22.8217716 9.02194357,23.090715 9.5862069,23.398079 L9.22257053,23.9807898 C8.62068966,23.6093917 8.00626959,23.3148346 7.37304075,23.1035219 L7.70532915,22.5976521 Z M11.4796238,18 L12.0689655,18.2881537 C11.9310345,18.7491996 11.7492163,19.1974386 11.523511,19.6264674 L11.523511,24 L10.8777429,24 L10.8777429,20.6510139 C10.7147335,20.86873 10.539185,21.0800427 10.3573668,21.284952 L10.1442006,20.5997866 C10.7460815,19.8633938 11.1912226,18.9989328 11.4796238,18 Z M15.1034483,23.8655283 L12.984326,23.8655283 C12.4576803,23.8655283 12.1943574,23.583778 12.1943574,23.0266809 L12.1943574,20.6958378 L11.7115987,20.8431163 L11.7115987,20.1643543 L12.1943574,20.0106724 L12.1943574,18.6531483 L12.846395,18.6531483 L12.846395,19.7993597 L13.5673981,19.5688367 L13.5673981,18.0512273 L14.2194357,18.0512273 L14.2194357,19.357524 L15.5862069,18.9220918 C15.5862069,20.3564568 15.5485893,21.2273212 15.4858934,21.5346852 C15.4169279,21.8356457 15.1347962,21.9893276 14.6394984,21.9893276 L14.5768025,21.9893276 L14.3824451,21.3425827 C14.5329154,21.3425827 14.6645768,21.3489861 14.7774295,21.3489861 C14.846395,21.3489861 14.8902821,21.2785486 14.9028213,21.1440768 C14.9153605,21.022412 14.9278997,20.5869797 14.9278997,19.8377801 L14.2194357,20.0618997 L14.2194357,22.5784418 L13.5673981,22.5784418 L13.5673981,20.266809 L12.846395,20.4909285 L12.846395,22.9370331 C12.846395,23.1291355 12.9467085,23.2315902 13.1473354,23.2315902 L14.9905956,23.2315902 C15.1222571,23.2315902 15.2163009,23.1867663 15.2789969,23.1099253 C15.3291536,23.0202775 15.3667712,22.7257204 15.3855799,22.2198506 L16,22.4375667 C15.9561129,23.1099253 15.8746082,23.5197439 15.7617555,23.660619 C15.6426332,23.7950907 15.4231975,23.8655283 15.1034483,23.8655283 Z" id="其他" fill="#FFFFFF"></path>
            </g>
        </g>
    </g>
</svg>

<svg width="60" height="60" xmlns="http://www.w3.org/2000/svg" xmlns:xlink="http://www.w3.org/1999/xlink"><defs><rect id="a" x="0" y="0" width="25" height="27" rx="2"/></defs><g fill="none" fill-rule="evenodd"><circle fill="#05DCAC" cx="30" cy="30" r="30"/><g transform="translate(15 16)"><use fill="#05DCAC" xlink:href="#a"/><rect stroke="#FFF" stroke-width="1.5" x=".75" y=".75" width="23.5" height="25.5" rx="2"/><rect fill="#FFF" x="4" y="5" width="15" height="1.5" rx=".75"/><rect fill="#FFF" x="4" y="10" width="15" height="1.5" rx=".75"/><rect fill="#FFF" x="4" y="14" width="10" height="1.5" rx=".75"/><circle fill="#05DCAC" cx="23.5" cy="21.5" r="7.5"/><path d="M23 28a6 6 0 1 1 0-12 6 6 0 0 1 0 12zm0-1.241a4.759 4.759 0 1 0 0-9.518 4.759 4.759 0 0 0 0 9.518z" fill="#FFF" fill-rule="nonzero"/><path fill="#FFF" d="M20 19h1.37L23 21.58 24.63 19H26l-2.024 2.95h1.38v.52h-1.744l-.01.009v.723h1.754v.52h-1.754V25h-1.204v-1.277h-1.744v-.521h1.744v-.723l-.01-.008h-1.734v-.521h1.37zM4.113 18.57H5.14v-.519H5.8v.519h2.07v-.519h.658v.519h1.028v.627H8.527v2.715h1.147v.622H4v-.622h1.141v-2.715H4.113v-.627zm1.686 3.342h2.07v-.55h-2.07v.55zm0-1.114h2.07v-.518h-2.07v.518zm0-1.082h2.07v-.519h-2.07v.52zm.076 2.85l.464.422c-.502.372-1.116.705-1.844.993l-.413-.55c.708-.244 1.304-.532 1.793-.865zm1.83.032c.69.224 1.317.493 1.881.8l-.363.583a8.864 8.864 0 0 0-1.85-.877l.332-.506zM11.48 18l.589.288c-.138.461-.32.91-.545 1.338V24h-.646v-3.349a9.898 9.898 0 0 1-.52.634l-.214-.685c.602-.737 1.047-1.601 1.336-2.6zm3.623 5.866h-2.119c-.526 0-.79-.282-.79-.84v-2.33l-.482.147v-.679l.482-.153v-1.358h.652V19.8l.721-.23V18.05h.652v1.307l1.367-.436c0 1.434-.037 2.305-.1 2.613-.07.3-.351.454-.847.454h-.062l-.195-.646c.15 0 .283.006.395.006.07 0 .113-.07.126-.205.012-.122.025-.557.025-1.306l-.709.224v2.516h-.652v-2.311l-.72.224v2.446c0 .192.1.295.3.295h1.844c.131 0 .225-.045.288-.122.05-.09.088-.384.107-.89l.614.218c-.044.672-.125 1.082-.238 1.223-.12.134-.339.205-.659.205z"/></g></g></svg>
